X: 832
T: White hard Cabages
T: Easter Tuesday
%R: jig
B: "The Compleat Country Dancing-Master" printed by John Walsh, London ca. 1740
S: 6: CCDM2 http://imslp.org/wiki/The_Compleat_Country_Dancing-Master_(Various) V.2 (125)
Z: 2013 John Chambers <jc:trillian.mit.edu>
N: Repeats added to match dance description.
M: 6/8
L: 1/8
K: G
% - - - - - - - - - - - - - - - - - - - - - - - - -
d |\
g2d g2d | B>AB G2d | e2d c2B | A3- A2 :|\
d/e/ |\
d2G G2e | e2A A2f/g/ | f2B B2g | g2G G2d |
dcB A2G | G3- G2d | dBG ecA | fdB g2d |\
dBG ecA | fdB g2d | dcB A2G | G3 G2 |]
% - - - - - - - - - - - - - - - - - - - - - - - - -
%%center Note The 1st strain is to be play'd twice and the last but once
%%begintext align
%% First Cu. clap and cast off below the 2d Cu. .| Then
%% clap and cast up to the Top :| Cross over and figure with
%% the 2d Cu. and cast off right and left quite round lead
%% thro the 3d Cu. and turn your Partner .|
%%endtext
%%sep 1 8 500

%%sep 1 1 500
%%sep 1 1 500
